src/telerik-icons/solid/border-left.svg

<?xml version="1.0" encoding="utf-8"?>
<svg xmlns="http://www.w3.org/2000/svg" width="512" height="512" viewBox="0 0 512 512">
  <path d="M32 32h32v416H32V32zm96 32V32H96v32h32zm32 0V32h32v32h-32zm64 0V32h32v32h-32zm64 0V32h32v32h-32zm64 0V32h32v32h-32zM160 448v-32h32v32h-32zm64 0v-32h32v32h-32zm64 0v-32h32v32h-32zm64 0v-32h32v32h-32zM224 128V96h32v32h-32zm0 64v-32h32v32h-32zM96 256v-32h32v32H96zm64 0v-32h32v32h-32zm64 0v-32h32v32h-32zm64 0v-32h32v32h-32zm64 0v-32h32v32h-32zm64 0v-32h32v32h-32zm32-192V32h-32v32h32zm-32 64V96h32v32h-32zm0 64v-32h32v32h-32zm32 128v-32h-32v32h32zm-32 64v-32h32v32h-32zm0 64v-32h32v32h-32zM256 320v-32h-32v32h32zm-32 64v-32h32v32h-32zM96 448v-32h32v32H96z"/>
</svg>

<?xml version="1.0" encoding="utf-8"?>
<!-- Generator: Adobe Illustrator 19.2.1, SVG Export Plug-In . SVG Version: 6.00 Build 0)  -->
<svg xmlns="http://www.w3.org/2000/svg" width="512" height="512" viewBox="0 0 512 512">
<path d="M32,32h32v416H32V32z M128,64V32H96v32H128z M160,64V32h32v32H160z M224,64V32h32v32H224z M288,64V32h32v32H288z M352,64V32
	h32v32H352z M160,448v-32h32v32H160z M224,448v-32h32v32H224z M288,448v-32h32v32H288z M352,448v-32h32v32H352z M224,128V96h32v32
	H224z M224,192v-32h32v32H224z M96,256v-32h32v32H96z M160,256v-32h32v32H160z M224,256v-32h32v32H224z M288,256v-32h32v32H288z
	 M352,256v-32h32v32H352z M416,256v-32h32v32H416z M448,64V32h-32v32H448z M416,128V96h32v32H416z M416,192v-32h32v32H416z M448,320
	v-32h-32v32H448z M416,384v-32h32v32H416z M416,448v-32h32v32H416z M256,320v-32h-32v32H256z M224,384v-32h32v32H224z M96,448v-32
	h32v32H96z" />
</svg>
